X: 558
T: Bella Ciao
C:Traditional
B: good tune book
B: tunes
M:2/2
L:1/8
Q: 1/2=100
K:C
V:1 
 z2[E2A,2] A2[B2A,2] | [c2A,2][A4A,4]A,2 | A,2[E2A,2] A2[B2A,2] | [c2A,2][A4A,4]A,2 | 
 A,2[E2A,2] A2[B2A,2] | [c2A,2]A,2 B2[A2A,2] | [c2A,2]A,2 B2[A2A,2] | [B2C,2]C,2 B2C,2 | 
 [B2C,2]C,2 B2[B2C,2] | [^c2D,2][c4D,4]D,2 | D,2[^c2D,2] c2[c2D,2] | [^c2A,2][c4A,4]A,2 | 
 A,2[^c2A,2] c2[=c2A,2] | [B2E,2]E,2 B2E,2 | [B2E,2]E,2 B2E,2 | [A2A,2]A,4A,2 | A,8 ||
% abcbook-tune_id 63dce1bd4800edb97517dd95
% abcbook-tune_composer_id 
% abcbook-link-0 https://www.youtube.com/watch?v=Ccfgn8StvE4
% abcbook-link-title-0 Bella ciao avec Sous-titres IT+FR
% abcbook-boost 0
% abcbook-difficulty 0
% abcbook-tags good tune book
% abcbook-tablature 
% abcbook-transpose 
% abcbook-tuning 
% abcbook-lastupdated 1675424037314
% abcbook-soundfonts 
% abcbook-repeats 1
% Titles One title
% Transcriptions Only 1 transcription
% Mode major
% Key C
% Time_signature 2/2
% Has_accompaniment_chords No chords

